!!!SOCIAL_FUNCTION:	songs of war
!!!PDT:	1913
!!!OTL: No_48_Song_Concerning_a_Brave_Woman.krn
!!!REG: Great_Lakes
!!!LANG: Non-Tone
!!!LING_GROUP: Algonquin
**kern	**kern
*staff2	*staff1
=1-	=1-
*clefF4	*clefF4
*k[f#]	*k[f#]
*M2/4	*M2/4
4GG^/	4e\
4GG^/	4e\
=2	=2
4GG^/	4e\
4GG^/	4f#\
=3	=3
4GG^/	4g\
4GG^/	4e\
=4	=4
2r	4g\
.	4B\
=5||	=5||
*M3/4	*M3/4
2.r	2A\
.	4G\
=6	=6
2.r	4A\
.	4A\
.	4B\
=7||	=7||
*M2/4	*M2/4
2r	4c\
.	4A\
=8	=8
2r	4A\
.	4G\
=9||	=9||
*M3/4	*M3/4
2.r	(2E\
.	4BB/)
=10	=10
2.r	4A\
.	4A\
.	4B\
=11||	=11||
*M2/4	*M2/4
2r	4c\
.	4A\
=12	=12
2r	4A\
.	(8G\L
.	8E\J)
=13	=13
2r	[2G\
=14	=14
2r	4G\]
.	4A\
=15	=15
2r	2G\
=16	=16
2r	2E\
=17	=17
2r	[2BB/
=18	=18
2r	4BB/]
.	4BB/
=19	=19
2r	2BB/
==	==
*-	*-
